X: 1172
T: An Cnoc Bui
R: polka
M: 2/4
K: Dmajor
dA FE|DF AF|EE/E/ Ee|dc Bc|
dA FE|DF AF|EE/E/ Ee|Bc d2:|
|:dd/d/ df|af df|ee/e/ ef|gb af|
dd/d/ df|af df|ee/e/ eg|Bc d2:|

